icons/rdt_result_neg_invalid_rectangular.svg

<svg width="48" height="48" viewBox="0 0 48 48" fill="none" xmlns="http://www.w3.org/2000/svg">
<path fill-rule="evenodd" clip-rule="evenodd" d="M6 19L6 29L42 29V19L6 19ZM4 29C4 30.1046 4.89543 31 6 31L42 31C43.1046 31 44 30.1046 44 29V19C44 17.8954 43.1046 17 42 17L6 17C4.89543 17 4 17.8954 4 19L4 29Z" fill="black"/>
<path d="M38 22C39.1046 22 40 22.8954 40 24C40 25.1046 39.1046 26 38 26C36.8954 26 36 25.1046 36 24C36 22.8954 36.8954 22 38 22Z" fill="black"/>
<path d="M32.5 25.5C31.6716 25.5 31 24.8284 31 24C31 23.1716 31.6716 22.5 32.5 22.5C33.3284 22.5 34 23.1716 34 24C34 24.8284 33.3284 25.5 32.5 25.5Z" fill="black"/>
<path fill-rule="evenodd" clip-rule="evenodd" d="M26 23L11 23C10.4477 23 10 23.4477 10 24C10 24.5523 10.4477 25 11 25H26C26.5523 25 27 24.5523 27 24C27 23.4477 26.5523 23 26 23ZM8 24C8 25.6569 9.34315 27 11 27H26C27.6569 27 29 25.6569 29 24C29 22.3431 27.6569 21 26 21L11 21C9.34315 21 8 22.3432 8 24Z" fill="black"/>
<path fill-rule="evenodd" clip-rule="evenodd" d="M11.5927 11.0263C11.3453 10.9738 11.0882 11 10.8507 11.105C10.6123 11.2103 10.3979 11.3936 10.2424 11.6418C10.0866 11.8907 10 12.1894 10 12.5C10 12.8106 10.0866 13.1094 10.2424 13.3582C10.3979 13.6064 10.6123 13.7897 10.8507 13.895C11.0882 14 11.3453 14.0262 11.5927 13.9738C11.8406 13.9211 12.0778 13.7893 12.2704 13.5839C12.6481 13.181 13.2809 13.1605 13.6838 13.5381C14.0868 13.9158 14.1073 14.5487 13.7296 14.9516C13.2668 15.4455 12.669 15.7899 12.0079 15.9302C11.3462 16.0706 10.6611 15.9978 10.0422 15.7244C9.42437 15.4513 8.90684 14.9937 8.54737 14.4197C8.18825 13.8463 8 13.1784 8 12.5C8 11.8217 8.18825 11.1538 8.54737 10.5803C8.90684 10.0063 9.42437 9.54871 10.0422 9.27565C10.6611 9.00217 11.3462 8.92939 12.0079 9.06983C12.669 9.21013 13.2668 9.55455 13.7296 10.0484C14.1073 10.4514 14.0868 11.0842 13.6838 11.4619C13.2809 11.8395 12.6481 11.819 12.2704 11.4161C12.0778 11.2107 11.8406 11.0789 11.5927 11.0263Z" fill="black"/>
<path fill-rule="evenodd" clip-rule="evenodd" d="M13 33C13 32.4477 13.4477 32 14 32H16.5C17.8807 32 19 33.1193 19 34.5C19 35.8807 17.8807 37 16.5 37H15V38C15 38.5523 14.5523 39 14 39C13.4477 39 13 38.5523 13 38V33ZM15 35H16.5C16.7761 35 17 34.7761 17 34.5C17 34.2239 16.7761 34 16.5 34H15V35Z" fill="black"/>
<path fill-rule="evenodd" clip-rule="evenodd" d="M27 10C27 9.44772 27.4477 9 28 9H30.5C31.8807 9 33 10.1193 33 11.5C33 12.8807 31.8807 14 30.5 14H29V15C29 15.5523 28.5523 16 28 16C27.4477 16 27 15.5523 27 15V10ZM29 12H30.5C30.7761 12 31 11.7761 31 11.5C31 11.2239 30.7761 11 30.5 11H29V12Z" fill="black"/>
<path fill-rule="evenodd" clip-rule="evenodd" d="M22.4999 39C22.9168 39 23.2899 38.7414 23.4363 38.3511L24.9363 34.3511C25.1303 33.834 24.8683 33.2576 24.3511 33.0637C23.834 32.8698 23.2576 33.1318 23.0637 33.6489L22.5 35.152L21.9363 33.6489C21.7424 33.1318 21.166 32.8698 20.6489 33.0637C20.1318 33.2576 19.8698 33.834 20.0637 34.3511L21.5636 38.3511C21.71 38.7414 22.0831 39 22.4999 39Z" fill="black"/>
<path fill-rule="evenodd" clip-rule="evenodd" d="M36 13V15C36 15.5523 35.5523 16 35 16C34.4477 16 34 15.5523 34 15V13C33.4477 13 33 12.5523 33 12C33 11.4477 33.4477 11 34 11C34 10.6733 34.0898 10.2055 34.3885 9.7907C34.7239 9.32487 35.2741 9 36 9C36.5523 9 37 9.44772 37 10C37 10.5521 36.5526 10.9997 36.0005 11C36.5526 11.0003 37 11.4479 37 12C37 12.5523 36.5523 13 36 13Z" fill="black"/>
</svg>

<svg
  xmlns="http://www.w3.org/2000/svg"
  width="24"
  height="24"
  viewBox="0 0 24 24"
  fill="none"
  stroke="currentColor"
  stroke-width="2"
  stroke-linecap="round"
  stroke-linejoin="round"
>
  <path
    fill-rule="evenodd"
    d="M6 19v10h36V19zM4 29a2 2 0 0 0 2 2h36a2 2 0 0 0 2-2V19a2 2 0 0 0-2-2H6a2 2 0 0 0-2 2z"
    clip-rule="evenodd"
  />
  <path d="M38 22a2 2 0 1 1 0 4 2 2 0 0 1 0-4" />
  <path d="M32.5 25.5a1.5 1.5 0 1 1 0-3 1.5 1.5 0 0 1 0 3" />
  <path
    fill-rule="evenodd"
    d="M26 23H11a1 1 0 1 0 0 2h15a1 1 0 1 0 0-2M8 24a3 3 0 0 0 3 3h15a3 3 0 1 0 0-6H11a3 3 0 0 0-3 3"
    clip-rule="evenodd"
  />
  <path
    fill-rule="evenodd"
    d="M11.593 11.026a1.2 1.2 0 0 0-.742.079 1.4 1.4 0 0 0-.609.537A1.6 1.6 0 0 0 10 12.5c0 .31.087.61.242.858.156.248.37.432.609.537.237.105.494.131.742.079s.485-.185.677-.39a1 1 0 0 1 1.46 1.368 3.3 3.3 0 0 1-1.722.978 3.2 3.2 0 0 1-1.966-.206 3.4 3.4 0 0 1-1.495-1.304A3.6 3.6 0 0 1 8 12.5c0-.678.188-1.346.547-1.92a3.4 3.4 0 0 1 1.495-1.304 3.2 3.2 0 0 1 1.966-.206c.661.14 1.259.485 1.722.978a1 1 0 1 1-1.46 1.368 1.3 1.3 0 0 0-.677-.39"
    clip-rule="evenodd"
  />
  <path
    fill-rule="evenodd"
    d="M13 33a1 1 0 0 1 1-1h2.5a2.5 2.5 0 0 1 0 5H15v1a1 1 0 1 1-2 0zm2 2h1.5a.5.5 0 0 0 0-1H15z"
    clip-rule="evenodd"
  />
  <path
    fill-rule="evenodd"
    d="M27 10a1 1 0 0 1 1-1h2.5a2.5 2.5 0 0 1 0 5H29v1a1 1 0 1 1-2 0zm2 2h1.5a.5.5 0 0 0 0-1H29z"
    clip-rule="evenodd"
  />
  <path
    fill-rule="evenodd"
    d="M22.5 39a1 1 0 0 0 .936-.649l1.5-4a1 1 0 1 0-1.872-.702l-.564 1.503-.564-1.503a1 1 0 0 0-1.872.702l1.5 4A1 1 0 0 0 22.5 39"
    clip-rule="evenodd"
  />
  <path
    fill-rule="evenodd"
    d="M36 13v2a1 1 0 1 1-2 0v-2a1 1 0 1 1 0-2c0-.327.09-.794.389-1.21.335-.465.885-.79 1.611-.79a1 1 0 0 1 0 2 1 1 0 0 1 0 2"
    clip-rule="evenodd"
  />
</svg>
